X:2922
T:Polonäs i Bb efter Johan Eric Blomgren
R:Slängpolska
B:http://www.smus.se/earkiv/fmk/browselarge.php?lang=sw&katalogid=Ma+13a&bildnr=00131
S:efter Johan Eric Blomgren
Z:Nils L
M:3/4
L:1/16
K:Bb
B,2BA B2B,2 D2F2 | B2Bd cBAc B4 | g2E2 E2gE gbab | f4 defg edcB | 
g2E2 E2gE gbab | f4 defg edcB | g2ba b2d2 e2fe | dcBA B4 B,4 ::
f2F2 A2c2 f4 | afac' gegb f4 | f2fe d2f2 b2f2 | e2ed d4 c4 | 
dBdf cAce FAce | dBdf cAce FAce | dfbf gedc Bdge | dcBA B4 B,4 :| 
(:musicend:)
(:music:)
